material/.icons/material/robot-mower.svg

<svg xmlns="http://www.w3.org/2000/svg" viewBox="0 0 24 24"><path d="M1 14V5h12c5.5 0 10 4.5 10 10v2h-2.17A2.99 2.99 0 0118 19a2.99 2.99 0 01-2.83-2H10a5.002 5.002 0 01-9-3m5-3c-1.66 0-3 1.34-3 3s1.34 3 3 3 3-1.34 3-3-1.34-3-3-3m9-1v2h5.25c-.33-.73-.75-1.4-1.25-2h-4z"/></svg>

<?xml version="1.0" encoding="UTF-8"?><!DOCTYPE svg PUBLIC "-//W3C//DTD SVG 1.1//EN" "http://www.w3.org/Graphics/SVG/1.1/DTD/svg11.dtd"><svg xmlns="http://www.w3.org/2000/svg" xmlns:xlink="http://www.w3.org/1999/xlink" version="1.1" id="mdi-robot-mower" width="24" height="24" viewBox="0 0 24 24"><path d="M1 14V5H13C18.5 5 23 9.5 23 15V17H20.83C20.42 18.17 19.31 19 18 19C16.69 19 15.58 18.17 15.17 17H10C9.09 18.21 7.64 19 6 19C3.24 19 1 16.76 1 14M6 11C4.34 11 3 12.34 3 14C3 15.66 4.34 17 6 17C7.66 17 9 15.66 9 14C9 12.34 7.66 11 6 11M15 10V12H20.25C19.92 11.27 19.5 10.6 19 10H15Z" /></svg>
